X:1
T:He Saved Me
T:He Saved Me
T:James B. Franklin
T:Grace Maynard, 1911
T:Public Domain Courtesy of the Cyber Hymnal™
T:Public Domain Courtesy of the Cyber Hymnal™
C:James B. Franklin
Z:Public Domain
Z:Courtesy of the Cyber Hymnal™
%%score ( 1 2 ) ( 3 4 )
L:1/8
Q:1/4=100
M:6/8
K:Eb
V:1 treble 
V:2 treble 
V:3 bass 
V:4 bass 
V:1
 B, | E2 [B,E] [EG][EB][Ec] | [EB]3 [EG]2 B, | E2 [B,E] [EG][EB][Ec] | [EB]3 F2 [EG] | %5
w: 1.~O|sing the song of sal-|va- tion, Pro-|claim to ev- er- y|na- tion, That|
w: 2.~He’s|prom- ised ev- er to|lead me, With|heav’n- ly man- na to|feed me, His|
w: 3.~I’ll|ne- ver cease to a-|dore Him, For|when my spir- it be-|fore Him At|
 [DA]>[DA][DA] [FA][EG][DF] | [EG]>[EG][FA] [GB][GB][Ge] | [Fd]3 [Ec]3 | [DB]3- [DB]2 z || %9
w: Je- sus is wait- ing, Is|will- ing and rea- dy, To|save their|souls. *|
w: coun- sel di- rects me, His|pre- sence con- soles me, The|whole day|long. *|
w: judg- ment is stand- ing, If|He is my coun- sel Then|all is|well. *|
"^Refrain" [EB]3 [EG]3 | [GB]3- [GB]2 z | [Ge]3 [Ac]3 | [GB]3- [GB]2 z | %13
w: ||||
w: He saved|me, *|made me|free; *|
w: ||||
 [Ac]>[Ac][Ac] [EA][EA][Ac] | [GB]>[GB][GB] [EG][EG][Ge] | [Fd]3 [Ec]3 | [DB]3- [DB]2 z | %17
w: ||||
w: What He has done for me,|sin- ner, He’ll do for you,|none but|He! *|
w: ||||
 [EB]3 [EG]3 | [GB]3- [GB]2 z | [Be]3 [Af]3 | [Ge]3- !fermata![Ge]2 z | %21
w: ||||
w: He saved|me, *|Soon I’ll|be *|
w: ||||
 [Ge]>[Ge][Ge] [Ac][Ac][Ac] | [GB]>[GB][GB] [EG]E[Q:1/4=90]"^Slower"[EA] | [EG]3 [DF]3 | E3- E2 |] %25
w: ||||
w: Sing- ing in glo- ry the|beau- ti- ful sto- ry, That|“He saved|me!” *|
w: ||||
V:2
 B, | E2 x4 | x5 B, | E2 x4 | x3 F2 x | x6 | x6 | x6 | x6 || x6 | x6 | x6 | x6 | x6 | x6 | x6 | %16
 x6 | x6 | x6 | x6 | x6 | x6 | x4 E x | x6 | E3- E2 |] %25
V:3
 B,, | E,2 [E,G,] [E,B,][E,G,][E,A,] | [E,G,]3 [E,B,]2 B,, | E,2 [E,G,] [E,A,][E,G,][E,A,] | %4
w: |Won- * * * *||der- * * * *|
 [E,G,]3 [D,B,]2 [E,B,] | [F,B,]>[F,B,][F,B,] [B,,B,][B,,B,][B,,B,] | %6
w: ||
 [E,B,]>[E,B,][E,B,] [E,E][E,E][E,B,] | [F,B,]3 [F,=A,]3 | ([B,,-B,]3 [B,,A,]2) z || %9
w: |||
 [E,G,][E,G,][E,G,] [E,B,][E,B,][E,B,] | [E,E][G,E][B,E] [E,E]2 z | %11
w: ful, won- der- ful, Je- sus|saved me, pur- chased|
 [C,E][C,E][C,E] [A,E][A,E][A,E] | [E,E][E,E][E,E] [E,E]2 z | [A,E]>[A,E][A,E] [A,C][A,C][A,E] | %14
w: sal- va- tion, So full and|so free; Won- der-||
 [E,E]>[E,E][E,E] [E,B,][E,B,][E,B,] | [F,B,]3 [F,^A,]3 | [B,,-B,]3 [B,,A,]2 z | %17
w: |||
 [E,G,][E,G,][E,G,] [E,B,][E,B,][E,B,] | [E,E][G,E][B,E] [E,E]2 z | [G,E][G,E][G,E] B,B,[B,,B,] | %20
w: ful, won- der- ful, Je- sus|saved me, Sweet is|the pro- mise that soon I|
 [E,B,][E,B,][E,B,] !fermata![E,B,]2 z | [C,E]>[C,E][C,E] [A,E][A,E][A,E] | %22
w: shall be * *||
 [E,E]>[E,E][E,E] [E,B,][G,B,][A,C] | B,3 [B,,A,]3 | [E,G,]3- [E,G,]2 |] %25
w: |||
V:4
 B,, | E,2 x4 | x5 B,, | E,2 x4 | x6 | x6 | x6 | x6 | x6 || x6 | x6 | x6 | x6 | x6 | x6 | x6 | x6 | %17
 x6 | x6 | x3 B,B, x | x6 | x6 | x6 | B,3 x3 | x5 |] %25

